X:43
T:Mazurka 
R:Mazurka
S:http://www.dafo.dk/spillemand/
N:n59
B:Frederik Vilhelm Lind - Gullestrup 1867-95
O:Danmark
Z:<anamnese@laposte.net>
M:3/4
L:1/8
Q:1/4=120
K:D
AG | FA df a2 | EA ce g2 | (3fed (3fed cd | edcBAG |
     FA df a2 | EA ce g2 | (3fed (3fed cd | d2d2 :||: 
f2 | gfgbag | fefagf | edegfe | defg a2 | 
     gfgbag | fefagf | edegfe | defg a2 | d2d2 :||:
